neru-light-classic/32x32/start/start-here-kde.svg

<?xml version="1.0" encoding="UTF-8" standalone="no"?>
<svg
   xmlns:dc="http://purl.org/dc/elements/1.1/"
   xmlns:cc="http://creativecommons.org/ns#"
   xmlns:rdf="http://www.w3.org/1999/02/22-rdf-syntax-ns#"
   xmlns:svg="http://www.w3.org/2000/svg"
   xmlns="http://www.w3.org/2000/svg"
   xmlns:xlink="http://www.w3.org/1999/xlink"
   xmlns:sodipodi="http://sodipodi.sourceforge.net/DTD/sodipodi-0.dtd"
   xmlns:inkscape="http://www.inkscape.org/namespaces/inkscape"
   width="32"
   height="32"
   version="1.1"
   id="svg14"
   sodipodi:docname="start-here-kde.svg"
   inkscape:version="0.92.4 5da689c313, 2019-01-14"
   inkscape:label="plasma">
  <metadata
     id="metadata20">
    <rdf:RDF>
      <cc:Work
         rdf:about="">
        <dc:format>image/svg+xml</dc:format>
        <dc:type
           rdf:resource="http://purl.org/dc/dcmitype/StillImage" />
      </cc:Work>
    </rdf:RDF>
  </metadata>
  <defs
     id="defs18">
    <linearGradient
       inkscape:collect="always"
       id="linearGradient818">
      <stop
         style="stop-color:#6c7482;stop-opacity:1"
         offset="0"
         id="stop814" />
      <stop
         style="stop-color:#a6c4d2;stop-opacity:1"
         offset="1"
         id="stop816" />
    </linearGradient>
    <linearGradient
       inkscape:collect="always"
       xlink:href="#linearGradient818"
       id="linearGradient820"
       x1="4.2549372"
       y1="28.083157"
       x2="27.822897"
       y2="4.5746217"
       gradientUnits="userSpaceOnUse" />
  </defs>
  <sodipodi:namedview
     pagecolor="#ffffff"
     bordercolor="#666666"
     borderopacity="1"
     objecttolerance="10"
     gridtolerance="10"
     guidetolerance="10"
     inkscape:pageopacity="0"
     inkscape:pageshadow="2"
     inkscape:window-width="567"
     inkscape:window-height="424"
     id="namedview16"
     showgrid="false"
     inkscape:zoom="7.8104265"
     inkscape:cx="16"
     inkscape:cy="16"
     inkscape:window-x="735"
     inkscape:window-y="294"
     inkscape:window-maximized="0"
     inkscape:current-layer="svg14" />
  <path
     style="opacity:1;fill:url(#linearGradient820);fill-opacity:1;fill-rule:nonzero;stroke:none;stroke-width:0.60000002;stroke-linecap:round;stroke-linejoin:miter;stroke-miterlimit:4;stroke-dasharray:none;stroke-dashoffset:0;stroke-opacity:1"
     d="m 20.348986,4.5954526 -2.96594,2.965943 4.493952,4.4772434 -4.466191,4.482907 2.96594,2.965943 7.432137,-7.459897 -2.96594,-2.9659447 -0.0055,0.00543 z M 10.14297,4.7257622 A 1.474059,1.474059 0 0 0 8.668784,6.1998102 1.474059,1.474059 0 0 0 10.14297,7.673857 1.474059,1.474059 0 0 0 11.617017,6.1998102 1.474059,1.474059 0 0 0 10.14297,4.7257622 Z M 6.4716585,13.430962 A 2.2806195,2.2806195 0 0 0 4.1911169,15.71165 2.2806195,2.2806195 0 0 0 6.4716585,17.992196 2.2806195,2.2806195 0 0 0 8.7523522,15.71165 2.2806195,2.2806195 0 0 0 6.4716585,13.430962 Z m 6.6194105,8.788765 a 2.9759303,2.9759303 0 0 0 -2.975999,2.975856 2.9759303,2.9759303 0 0 0 2.975999,2.975997 2.9759303,2.9759303 0 0 0 2.975854,-2.975997 2.9759303,2.9759303 0 0 0 -2.975854,-2.975856 z"
     id="path4495"
     inkscape:connector-curvature="0" />
</svg>

<svg xmlns="http://www.w3.org/2000/svg" xmlns:xlink="http://www.w3.org/1999/xlink" width="32" height="32"><defs><linearGradient id="a"><stop offset="0" stop-color="#6c7482"/><stop offset="1" stop-color="#a6c4d2"/></linearGradient><linearGradient xlink:href="#a" id="b" x1="4.255" y1="28.083" x2="27.823" y2="4.575" gradientUnits="userSpaceOnUse"/></defs><path d="M20.349 4.595l-2.966 2.966 4.494 4.478-4.466 4.483 2.966 2.965 7.432-7.46-2.966-2.965-.006.005zm-10.206.13A1.474 1.474 0 0 0 8.669 6.2a1.474 1.474 0 0 0 1.474 1.474A1.474 1.474 0 0 0 11.617 6.2a1.474 1.474 0 0 0-1.474-1.474zm-3.671 8.706a2.28 2.28 0 0 0-2.28 2.28 2.28 2.28 0 0 0 2.28 2.281 2.28 2.28 0 0 0 2.28-2.28 2.28 2.28 0 0 0-2.28-2.281zm6.62 8.789a2.976 2.976 0 0 0-2.977 2.976 2.976 2.976 0 0 0 2.976 2.976 2.976 2.976 0 0 0 2.976-2.976 2.976 2.976 0 0 0-2.976-2.976z" fill="url(#b)"/></svg>
